X:1
T:Zwölf Deutsche und Italiänische Romantische Gesänge
T:Durch die bunten Rosenhecken
T:3. Durch die bunten Rosenhecken
T:Louise Reichardt
T:Johann Ludwig Tieck
T:Zwölf Deutsche und Italiänische Romantische Gesänge
T:OpenScore (CC0) 
C:Louise Reichardt
Z:Johann Ludwig Tieck
Z:OpenScore (CC0)
%%score 1 { 2 | 3 }
L:1/8
Q:1/4=120
M:4/4
K:Ab
V:1 treble nm="Voice"
V:2 treble nm="Piano"
V:3 bass 
V:1
"^Unruhig und klagend" F A |: c3 c d3 B | c2 c2 z2 c A | G3 G A3 G | G4 z2 G A | B3 G d3 B | %6
w: 1.~Durch die|bun- ten Ro- sen-|he- cken flat- tern|Schmet- ter- lin- ge|hin; mun- tre|Ler- chen- tö- ne|
w: |2.~wach sind mei- ne|Sor- gen Nim- mer|ruht dies treu- e|Herz Und ein|jed- der roth- e|
w: |3.~werd ich Ruh- e|fin- den Ist es|bald, wie od- er|spät? Wollt ihr|mich der Quaal ent-|
 f2 =e2 g3 e | f2 d2 c2 =E2 | F4"^[1. 2. times only]" z2 F A :| %9
w: we- cken schon die|Ta- ges- kö- ni-|gin. Im- mer|
w: Mor- gen Find- et|Mein- en reg- en|Schmerz. Ach! wann|
w: bin- den, Hört ihr|Göt- ter mein Ge-|beth! * *|
V:2
 z2 |: z [A,CF][A,CF][A,CF] z [B,DF][B,DF][B,DF] | z [A,CF][A,CF][A,CF] z [A,CF][A,CF][A,CF] | %3
 z [DFG][DFG][DFG] z [=DFA][DFA][DFA] | z [=EG][EG][EG] z [EG][EG][FA] | %5
 z [=EGB][EGB][EGB] z [GBd][GBd][GBd] | z [GB=e][GBe][GBe] z [G_d=e][Gde][Gde] | %7
 z [Acf] z [FBd] z [FAc] z [B,C=E] | z [A,CF][A,CF][A,CF] z [A,CF][A,CF][A,CF] :| %9
V:3
 z2 |: [F,,F,]2 z2 [F,,F,]2 z2 | [F,,F,]2 z2 [F,,F,]2 z2 | B,2 z2 =B,2 z2 | C2 z2 C2 z2 | %5
 [C,C]2 z2 [C,C]2 z2 | [C,C]2 z2 B,2 z2 | A,2 B,2 C2 C,2 | F,2 z2 [F,,F,]2 z2 :| %9

